svg/fluentui-system-icons/ic_fluent_text_case_lowercase_20_regular.svg

<svg width="20" height="20" viewBox="0 0 20 20" fill="none" xmlns="http://www.w3.org/2000/svg">
<path d="M11.5 3.5C11.7761 3.5 12 3.72386 12 4V8.89121C12.5308 8.337 13.2316 8 14 8C15.6569 8 17 9.567 17 11.5C17 13.433 15.6569 15 14 15C13.2316 15 12.5308 14.663 12 14.1088V14.5C12 14.7761 11.7761 15 11.5 15C11.2239 15 11 14.7761 11 14.5V4C11 3.72386 11.2239 3.5 11.5 3.5ZM14 14C14.9655 14 16 13.0309 16 11.5C16 9.96911 14.9655 9 14 9C13.0345 9 12 9.96911 12 11.5C12 13.0309 13.0345 14 14 14ZM5.89434 8.68726C5.40816 8.70598 4.98081 8.81885 4.72372 8.94739C4.47673 9.07089 4.17639 8.97078 4.0529 8.72379C3.9294 8.4768 4.02952 8.17646 4.2765 8.05297C4.68608 7.84818 5.25873 7.71099 5.85588 7.688C6.45572 7.66492 7.1283 7.75518 7.72376 8.05299C9.00351 8.69302 9.00111 9.96109 9.00016 10.4624L9.00011 10.5001V14.4999C9.00011 14.776 8.77625 14.9999 8.50011 14.9999C8.22397 14.9999 8.00011 14.776 8.00011 14.4999V14.0885C7.08706 14.7543 5.98938 15.1823 4.87126 14.8837C2.98667 14.3805 2.33677 11.8411 4.22214 10.5844C4.93707 10.1078 5.80595 9.97554 6.59701 10.0156C7.08709 10.0404 7.56827 10.1322 7.99727 10.2652C7.98197 9.78649 7.88498 9.25171 7.27646 8.94737C6.87193 8.74505 6.37783 8.66865 5.89434 8.68726ZM8.00011 11.3252C7.59213 11.1643 7.07734 11.0412 6.54643 11.0143C5.88518 10.9808 5.25357 11.0986 4.7768 11.4165C3.66106 12.1602 4.01341 13.6196 5.12926 13.9176C6.03124 14.1585 7.06727 13.6702 8.00011 12.7888V11.3252Z" fill="#212121"/>
</svg>

<svg xmlns="http://www.w3.org/2000/svg" width="20" height="20"><path d="M11.5 3.5a.5.5 0 0 1 .5.5v4.891C12.53 8.337 13.232 8 14 8c1.657 0 3 1.567 3 3.5S15.657 15 14 15c-.768 0-1.47-.337-2-.891v.391a.5.5 0 0 1-1 0V4a.5.5 0 0 1 .5-.5ZM14 14c.966 0 2-.97 2-2.5S14.966 9 14 9s-2 .97-2 2.5 1.034 2.5 2 2.5ZM5.894 8.687c-.486.019-.913.132-1.17.26a.5.5 0 1 1-.447-.894c.41-.205.982-.342 1.579-.365.6-.023 1.272.067 1.868.365C9.004 8.693 9 9.961 9 10.463V14.5a.5.5 0 0 1-1 0v-.412c-.913.666-2.01 1.094-3.129.796-1.884-.504-2.534-3.043-.649-4.3.715-.476 1.584-.608 2.375-.568.49.024.971.116 1.4.25-.015-.48-.112-1.014-.72-1.319-.405-.202-.9-.278-1.383-.26ZM8 11.325a4.719 4.719 0 0 0-1.454-.31c-.66-.034-1.292.084-1.77.401-1.115.744-.763 2.204.353 2.502.902.24 1.938-.248 2.871-1.13v-1.463Z"/></svg>
